src/16/actions/view-task-child.svg

<svg xmlns="http://www.w3.org/2000/svg" viewBox="0 0 16 16"><path d="M2 2v12h7v-1H3V5h10v3h1V2h-2v2h-2V2H6v2H4V2H2zm8.336 4.5l-3.149 3.61-1.525-1.553L5 9.232 7.227 11.5 11 7.178l-.664-.678zM10 9v5h5V9h-1v1h-1V9h-1v1h-1V9h-1zm1 2h3v2h-3v-2z" fill="currentColor" color="#5d656b"/></svg>

<svg xmlns="http://www.w3.org/2000/svg" viewBox="0 0 16 16">
  <defs id="defs3051">
    <style type="text/css" id="current-color-scheme">
      .ColorScheme-Text {
        color:#5d656b;
      }
      </style>
  </defs>
 <path style="fill:currentColor;fill-opacity:1;stroke:none" 
       d="M 2 2 L 2 14 L 9 14 L 9 13 L 3 13 L 3 5 L 13 5 L 13 8 L 14 8 L 14 2 L 12 2 L 12 4 L 10 4 L 10 2 L 6 2 L 6 4 L 4 4 L 4 2 L 2 2 z M 10.335938 6.5 L 7.1875 10.109375 L 5.6621094 8.5566406 L 5 9.2324219 L 7.2265625 11.5 L 11 7.1777344 L 10.335938 6.5 z M 10 9 L 10 10 L 10 13.199219 L 10 14 L 15 14 L 15 13 L 15 10 L 15 9 L 14 9 L 14 10 L 13 10 L 13 9 L 12 9 L 12 10 L 11 10 L 11 9 L 10 9 z M 11 11 L 14 11 L 14 13 L 11 13 L 11 11 z "
     class="ColorScheme-Text"
     />
</svg>
